X:1
T:Sussex Carol
N: Collected from Mrs. Verall, Monks Gate, Sussex
N: harmonization by R. Vaughan Williams, 1919
M:6/8
Q:1/4=120
K:G
dd2Bc2|dBAGA2|FG2GAB|cB2AG2|AB3c2|-cd3G2|
AB3e2|-ed2cB2|-BA3A2|GABcdc|BG3A2|-AB3c2|
-cd3e2|eA2cB2|-B4dd|-dBc2dB|AGA2FG|-GGABcB|
-BAG2AB|-B2c3d|-d2G2AB|-B2e3d|-dcB3A|-A2A2GA|
BcdcBG|-G2A3B|-B2c3d|-d2e2eA|-AcB4|-B2dd2B|
c2dBAG|A2FG2G|ABcB2A|G2AB3|c3d3|G2AB3|e3d2c|
B3A3|A2GABc|dcBG3|A3B3|c3d3|e2eA2c|B11/2||
